X:540
T:The Mountains of Pomeroy
M:C
L:1/8
B:O'Neill's 540
N:"With spirit"
Z:Transcribed by Dave Wooldridge
K:G
d2 \
| d2 B2 (dc)(BA) | G3 A E2 (GE) | D2 (EG) G2 (AB) | c2 z2 z2 Bc |
d2 B2 (dc)(BA) | G2 A2 E2 (GE) | D2 (EG) G3 A | G2 z2 z2 ||
GA \
| B3 A G2 AB | c2 d2 d2 ge | d2 B2 G2 (AB) | c2 z2 z2 Bc |
d2 BB (dc)(BA) | G2 A2 E2 GE | D2 EG G3 A | G2 z2 z2 GA | B2 A2 G2 AB |
c2 d2 Hd2| ge | d3 B AB | Hc2 z2 z2 Bc | d2 B2 (dc)(BA) | G2 A2 E2 GE | \
D3 E G2 G2 | G2 z2 z2 ||


